src/assets/svg/icons/fa/nuevos/classic/thin/user-tie-hair classic thin.svg

<svg xmlns="http://www.w3.org/2000/svg" viewBox="0 0 448 512"><!--! Font Awesome Pro 6.4.0 by @fontawesome - https://fontawesome.com License - https://fontawesome.com/license (Commercial License) Copyright 2023 Fonticons, Inc. --><path d="M336 128c0-5.4-.4-10.8-1.1-16H312c-22.1 0-43-10.2-56.6-27.5L251 89.9C231.2 114 201.7 128 170.5 128L112 128v16c0 61.9 50.1 112 112 112s112-50.1 112-112V128zM267.2 73.6C277.8 87.7 294.4 96 312 96h19.4c-6.8-22.8-20.6-42.5-39-56.7L265.8 71.8l1.4 1.8zM279 30.4C262.7 21.2 244 16 224 16c-56.4 0-103.1 41.7-110.9 96h57.4c26.4 0 51.4-11.8 68.1-32.3L279 30.4zM96 128C96 57.3 153.3 0 224 0s128 57.3 128 128v16c0 70.7-57.3 128-128 128s-128-57.3-128-128V128zm80.9 180.3c1.4-2.7 4.1-4.3 7.1-4.3h80c3 0 5.7 1.7 7.1 4.3s1.1 5.9-.6 8.3l-37.2 52.1 23.2 46.3 47.1-94.2c81.2 8.4 144.4 77 144.4 160.4c0 17-13.8 30.7-30.7 30.7H225.9h-3.8H30.7C13.8 512 0 498.2 0 481.3c0-83.4 63.3-152 144.4-160.4l47.1 94.2 23.2-46.3-37.2-52.1c-1.7-2.4-2-5.6-.6-8.3zM199.5 320L224 354.2 248.5 320H199.5zm10.1 167.2L135.3 338.3C67.5 350.6 16 409.9 16 481.3c0 8.1 6.6 14.7 14.7 14.7H214.1l-4.4-8.8zm-9.2-54.2l14.6 29.2L224 480l8.9-17.9 14.6-29.2L224 385.9l-23.5 47.1zM432 481.3c0-71.4-51.5-130.7-119.3-143L238.3 487.2l-4.4 8.8H417.3c8.1 0 14.7-6.6 14.7-14.7z"/></svg>

<svg xmlns="http://www.w3.org/2000/svg" viewBox="0 0 448 512"><path d="M96 128C96 57.31 153.3 0 224 0C294.7 0 352 57.31 352 128V144C352 214.7 294.7 272 224 272C153.3 272 96 214.7 96 144V128zM334.9 112H312C289.9 112 269 101.8 255.4 84.49L250.1 89.86C231.2 113.1 201.7 128 170.5 128H112V144C112 205.9 162.1 256 224 256C285.9 256 336 205.9 336 144V128C336 122.6 335.6 117.2 334.9 112L334.9 112zM312 96H331.4C324.6 73.21 310.7 53.46 292.4 39.29L265.8 71.75L267.2 73.6C277.8 87.7 294.4 96 312 96H312zM278.1 30.4C262.7 21.23 243.1 16 224 16C167.6 16 120.9 57.72 113.1 112H170.5C196.9 112 221.9 100.2 238.6 79.72L278.1 30.4zM176.9 308.3C178.3 305.7 181 304 184 304H264C266.1 304 269.7 305.7 271.1 308.3C272.5 311 272.3 314.2 270.5 316.6L233.3 368.7L256.5 415.1L303.6 320.9C384.7 329.3 448 397.9 448 481.3C448 498.2 434.2 511.1 417.3 511.1H30.72C13.75 511.1 0 498.2 0 481.3C0 397.9 63.28 329.3 144.4 320.9L191.5 415.1L214.7 368.7L177.5 316.6C175.7 314.2 175.5 311 176.9 308.3H176.9zM199.5 320L224 354.2L248.5 320H199.5zM135.3 338.3C67.45 350.6 16 409.9 16 481.3C16 489.4 22.59 495.1 30.72 495.1H214.1L135.3 338.3zM200.5 432.9L224 480L247.5 432.9L224 385.9L200.5 432.9zM432 481.3C432 409.9 380.5 350.6 312.7 338.3L233.9 495.1H417.3C425.4 495.1 432 489.4 432 481.3H432z"/></svg>
